mobile/apps/auth/assets/custom-icons/icons/newton.svg

<svg width="24" height="24" viewBox="0 0 24 24" fill="none" xmlns="http://www.w3.org/2000/svg">
<path d="M20.2324 2.78628H21.214V21.2136H9.76734V8.77878C9.76734 8.05185 9.17804 7.46255 8.4511 7.46255C7.72416 7.46255 7.13486 8.05185 7.13486 8.77878V22.5298C7.13486 23.2568 7.72416 23.8461 8.4511 23.8461H22.5302C23.2572 23.8461 23.8465 23.2568 23.8465 22.5298V1.47005C23.8465 0.743108 23.2572 0.153809 22.5302 0.153809H20.2324C19.5055 0.153809 18.9162 0.743108 18.9162 1.47005C18.9162 2.19698 19.5055 2.78628 20.2324 2.78628Z" fill="currentColor"></path>
<path d="M3.76836 21.2136H2.78677V2.78632H14.2331V15.2211C14.2331 15.9481 14.8224 16.5374 15.5493 16.5374C16.2763 16.5374 16.8656 15.9481 16.8656 15.2211V1.47008C16.8656 0.743141 16.2763 0.153841 15.5493 0.153841H1.47053C0.743596 0.153841 0.154297 0.743141 0.154297 1.47008V22.5299C0.154297 23.2568 0.743596 23.8461 1.47053 23.8461H3.76836C4.49529 23.8461 5.08459 23.2568 5.08459 22.5299C5.08459 21.8029 4.49529 21.2136 3.76836 21.2136Z" fill="#2FE1B9"></path>
</svg>

<svg xmlns="http://www.w3.org/2000/svg" fill="none" viewBox="0 0 24 24"><path fill="currentColor" d="M20.232 2.786h.982v18.428H9.767V8.779a1.316 1.316 0 0 0-2.632 0v13.75c0 .728.59 1.317 1.316 1.317h14.08c.726 0 1.316-.59 1.316-1.316V1.47c0-.727-.59-1.316-1.317-1.316h-2.298a1.316 1.316 0 0 0 0 2.632Z"/><path fill="#2FE1B9" d="M3.768 21.214h-.981V2.786h11.446v12.435a1.316 1.316 0 1 0 2.633 0V1.471c0-.728-.59-1.317-1.317-1.317H1.471C.744.154.154.744.154 1.47v21.06c0 .727.59 1.316 1.317 1.316h2.297a1.316 1.316 0 1 0 0-2.632Z"/></svg>
